packages/sources/icons/src/vitamix/purchase.svg

<svg width="24" height="24" viewBox="0 0 24 24" fill="none" xmlns="http://www.w3.org/2000/svg">
<path fill-rule="evenodd" clip-rule="evenodd" d="M16.5019 6H18.75C19.1642 6 19.5 6.33579 19.5 6.75V14.25C19.5 14.6642 19.1642 15 18.75 15C18.3358 15 18 14.6642 18 14.25V7.5H6V20.7894L11.0681 19.5224C11.4699 19.4219 11.8771 19.6663 11.9776 20.0681C12.0781 20.4699 11.8337 20.8771 11.4319 20.9776L5.4319 22.4776C4.95854 22.5959 4.5 22.2379 4.5 21.75V6.75C4.5 6.33579 4.83579 6 5.25 6H7.50195C7.50195 3.51472 9.51667 1.5 12.002 1.5C14.4872 1.5 16.5019 3.51472 16.5019 6ZM15.002 6C15.002 4.34315 13.6588 3 12.002 3C10.3451 3 9.00195 4.34315 9.00195 6H15.002ZM16.5009 20.5615L14.7821 22.2803C14.4013 22.6611 13.7553 22.5285 13.5554 22.0285L10.5554 14.5285C10.3105 13.9163 10.918 13.3087 11.5303 13.5536L19.0303 16.5536C19.5302 16.7536 19.6628 17.3996 19.2821 17.7803L17.5615 19.5009L19.2803 21.2197C19.5732 21.5126 19.5732 21.9874 19.2803 22.2803C18.9874 22.5732 18.5126 22.5732 18.2197 22.2803L16.5009 20.5615ZM12.598 15.5963L14.5257 20.4154L17.4171 17.5239L12.598 15.5963Z" fill="#001018"/>
</svg>

<svg width="24" height="24" fill="none" xmlns="http://www.w3.org/2000/svg"><path fill-rule="evenodd" clip-rule="evenodd" d="M16.502 6h2.248a.75.75 0 0 1 .75.75v7.5a.75.75 0 0 1-1.5 0V7.5H6v13.29l5.068-1.268a.75.75 0 0 1 .364 1.456l-6 1.5a.75.75 0 0 1-.932-.728v-15A.75.75 0 0 1 5.25 6h2.252a4.5 4.5 0 0 1 9 0zm-1.5 0a3 3 0 0 0-6 0h6zm1.499 14.561-1.719 1.72a.75.75 0 0 1-1.227-.252l-3-7.5a.75.75 0 0 1 .975-.975l7.5 3c.5.2.633.846.252 1.226l-1.72 1.72 1.718 1.72a.75.75 0 1 1-1.06 1.06l-1.72-1.719zm-3.903-4.965 1.928 4.82 2.891-2.892-4.819-1.928z" fill="#001018"/></svg>
